X: 21521
T: Kieran's
R: polka
M: 2/4
K: Bminor
E|FB B>A|Bc EF|A2 Ac/e/|fe c/B/A|
FB B>A|Bc Ec/e/|fe c/d/e/c/|BA A:|
|:c/e/|fe a>e|fe a>e|dc e/f/e/c/|
[1BA Fc/e/|fe a>e|fe a>e|dc e/f/e/c/|BA A:|
[2BA F>E|FB B>A|Bc Ec/e/|fe c/d/e/c/|BA A||

